X:1
T:[ID 6v-19a (=6-84a)]
T:[ID 6v-19a (=6-84a)]
T:Bezeichnung standardisiert: Allegro Allegro
T:Urheber unbekannt Datum in der hier transkribierten schriftlichen Quelle: 1775
C:Urheber unbekannt
C:Datum in der hier transkribierten schriftlichen Quelle: 1775
L:1/8
M:2/4
K:D
V:1 treble 
V:1
 F2 E2 | F2 z (3A/B/c/ | d2 c2 | d2 z2 | fd/e/ ff | ec/e/ ee | dF/A/ dd | c/B/c/d/ c2 | c2 B2 | %9
 c2 z (3D/C/B,/ | C2 B,2 | C2 z2 | A/B/ c2 B | ^G/A/ B2 D | C2 B,2 | C2 z2 :: C2 B,2 | %17
 C2 z (3E/F/^G/ | A2 ^G2 | A2 z2 | c/B/A/B/ ca | B/A/G/A/ Bg | A/G/F/G/ Af | ^G2 E2 | c E2 c | %25
 B E2 B | A E2 A | ^G E2 G | c E2 c | B E2 B | A E2 A | G c2 G | A f2 D | C2 B,2 | C2 z (3C/D/E/ | %35
 F2 E2 | F2 z (3A/B/c/ | d2 c2 | d2 z2 | f d2 f | e c2 e | d F2 d | c2 A2 | F D2 F | E C2 E | %45
 D B,2 D | C2 z F | G E2 G | A F2 A | B G2 B | c A2 c | d B2 d | e c2 e | f z2 F | A2 G2 | F2 z2 :| %56

